public/logos/P0.svg

<?xml version="1.0" encoding="UTF-8"?>
<svg xmlns="http://www.w3.org/2000/svg" xmlns:xlink="http://www.w3.org/1999/xlink" width="176pt" height="36.33pt" viewBox="0 0 176 36.33" version="1.1">
<defs>
<clipPath id="clip1">
  <path d="M 92 31 L 116 31 L 116 36.328125 L 92 36.328125 Z M 92 31 "/>
</clipPath>
</defs>
<g id="surface1">
<path style=" stroke:none;fill-rule:nonzero;fill:rgb(16.281128%,23.828125%,60.629272%);fill-opacity:1;" d="M 0 18.613281 C 1.554688 18.617188 3.109375 18.601562 4.664062 18.625 C 5.203125 18.632812 5.75 18.691406 6.28125 18.792969 C 7.976562 19.128906 8.960938 20.164062 9.179688 21.882812 C 9.359375 23.308594 9.242188 24.6875 8.113281 25.753906 C 7.324219 26.496094 6.316406 26.699219 5.269531 26.726562 C 4.59375 26.746094 3.921875 26.730469 3.175781 26.730469 C 3.175781 28.074219 3.175781 29.382812 3.175781 30.777344 C 2.070312 30.777344 1.035156 30.777344 0 30.777344 C 0 29.425781 0 28.074219 0 26.722656 C 1.195312 26.746094 2.371094 26.597656 3.457031 26.074219 C 4.492188 25.578125 5.355469 24.875 5.71875 23.714844 C 5.769531 23.59375 5.835938 23.472656 5.867188 23.347656 C 6.121094 22.308594 5.917969 21.226562 4.410156 21.195312 C 4 21.1875 3.589844 21.183594 3.179688 21.175781 C 3.148438 21.328125 3.089844 21.484375 3.089844 21.636719 C 3.078125 22.296875 3.089844 22.957031 3.082031 23.613281 C 3.082031 23.78125 3.042969 23.949219 3.019531 24.167969 C 1.984375 24.167969 0.992188 24.167969 0 24.167969 C 0 22.316406 0 20.464844 0 18.613281 "/>
<path style=" stroke:none;fill-rule:nonzero;fill:rgb(97.013855%,59.410095%,6.115723%);fill-opacity:1;" d="M 3.019531 24.167969 C 3.019531 24.167969 0.992188 24.167969 0 24.167969 C 0 25.019531 0 25.871094 0 26.722656 C 1.195312 26.746094 2.371094 26.597656 3.457031 26.074219 C 4.492188 25.578125 5.355469 24.875 5.71875 23.714844 C 4.984375 24.347656 4.109375 24.164062 3.179688 24.171875 L 3.019531 24.167969 "/>
<path style=" stroke:none;fill-rule:nonzero;fill:rgb(16.281128%,23.828125%,60.629272%);fill-opacity:1;" d="M 118.535156 14.175781 C 117.828125 15.683594 117.132812 17.195312 116.414062 18.699219 C 115.683594 20.234375 114.753906 21.660156 113.515625 22.820312 C 112.308594 23.949219 110.972656 24.9375 109.695312 25.988281 C 109.707031 26.035156 109.71875 26.085938 109.730469 26.132812 C 109.941406 26.132812 110.160156 26.171875 110.363281 26.128906 C 111.980469 25.773438 113.488281 25.113281 114.964844 24.382812 C 115.246094 24.238281 115.535156 24.105469 115.925781 23.917969 C 115.511719 24.363281 115.191406 24.746094 114.835938 25.089844 C 113.285156 26.597656 111.339844 27.308594 109.28125 27.777344 C 108.851562 27.875 108.425781 27.976562 107.992188 28.066406 C 106.886719 28.304688 105.90625 28.765625 104.980469 29.441406 C 103.035156 30.859375 101.101562 32.320312 98.871094 33.269531 C 97.21875 33.972656 95.511719 34.539062 93.828125 35.164062 C 93.800781 35.109375 93.777344 35.050781 93.753906 34.996094 C 93.964844 34.878906 94.179688 34.765625 94.390625 34.644531 C 96.464844 33.460938 98.433594 32.140625 100.09375 30.398438 C 100.234375 30.25 100.394531 30.105469 100.488281 29.929688 C 100.585938 29.753906 100.613281 29.542969 100.699219 29.265625 C 100.382812 29.210938 100.15625 29.121094 99.941406 29.140625 C 98.472656 29.253906 97.179688 28.816406 96.050781 27.902344 C 95.542969 27.492188 95.0625 27.515625 94.566406 27.855469 C 94.144531 28.144531 93.75 28.46875 93.316406 28.800781 C 93.214844 28.082031 93.472656 27.496094 93.941406 26.996094 C 94.050781 25.832031 94.671875 25.1875 95.894531 25.050781 C 96.636719 24.972656 97.386719 24.988281 98.136719 24.96875 C 98.898438 24.953125 99.660156 24.957031 100.425781 24.941406 C 101.855469 24.914062 102.925781 24.105469 103.894531 23.210938 C 107.808594 19.597656 111.535156 15.808594 114.574219 11.414062 C 116.882812 8.074219 118.710938 4.484375 119.996094 0.625 C 120.046875 0.472656 120.105469 0.320312 120.160156 0.171875 C 120.171875 0.148438 120.203125 0.132812 120.359375 -0.00390625 C 120.328125 0.695312 120.347656 1.28125 120.269531 1.851562 C 120.035156 3.601562 119.425781 5.242188 118.753906 6.855469 C 117.144531 10.710938 115.253906 14.421875 112.917969 17.894531 C 112.503906 18.515625 112.023438 19.09375 111.589844 19.707031 C 111.414062 19.957031 111.285156 20.246094 111.136719 20.515625 C 111.175781 20.566406 111.214844 20.617188 111.253906 20.667969 C 111.519531 20.589844 111.800781 20.546875 112.046875 20.429688 C 113.515625 19.742188 114.671875 18.675781 115.675781 17.421875 C 116.488281 16.398438 117.320312 15.390625 118.148438 14.378906 C 118.226562 14.285156 118.316406 14.195312 118.398438 14.101562 C 118.445312 14.128906 118.488281 14.152344 118.535156 14.175781 "/>
<path style=" stroke:none;fill-rule:nonzero;fill:rgb(16.281128%,23.828125%,60.629272%);fill-opacity:1;" d="M 23.429688 24.554688 C 23.429688 26.511719 24.945312 28.101562 26.820312 28.109375 C 28.730469 28.117188 30.261719 26.515625 30.257812 24.507812 C 30.257812 22.78125 28.675781 21.296875 26.839844 21.292969 C 24.992188 21.285156 23.429688 22.78125 23.429688 24.554688 Z M 26.789062 31.148438 C 22.941406 31.136719 20.214844 28.460938 20.121094 24.613281 C 20.050781 21.890625 21.863281 19.484375 24.65625 18.582031 C 27.851562 17.554688 31.3125 18.835938 32.871094 21.746094 C 33.933594 23.726562 33.78125 25.785156 32.765625 27.75 C 31.609375 29.996094 29.496094 31.160156 26.789062 31.148438 "/>
<path style=" stroke:none;fill-rule:nonzero;fill:rgb(16.281128%,23.828125%,60.629272%);fill-opacity:1;" d="M 67.351562 21.636719 C 66.363281 22.050781 65.40625 22.457031 64.425781 22.871094 C 64.351562 22.757812 64.289062 22.664062 64.234375 22.566406 C 63.726562 21.605469 62.992188 20.996094 61.847656 20.964844 C 60.664062 20.933594 59.796875 21.457031 59.238281 22.453125 C 58.347656 24.039062 58.347656 25.660156 59.324219 27.214844 C 60.15625 28.539062 61.859375 28.957031 63.242188 28.230469 C 63.914062 27.871094 64.269531 27.300781 64.324219 26.480469 C 63.480469 26.480469 62.667969 26.480469 61.808594 26.480469 C 61.808594 25.644531 61.808594 24.859375 61.808594 24.03125 C 63.859375 24.03125 65.914062 24.03125 67.96875 24.03125 C 68.210938 27.042969 66.839844 30.402344 63.15625 31.03125 C 60.984375 31.402344 58.960938 31.042969 57.273438 29.523438 C 56.171875 28.53125 55.5625 27.25 55.394531 25.785156 C 55.125 23.476562 55.617188 21.398438 57.402344 19.777344 C 58.394531 18.878906 59.601562 18.429688 60.917969 18.296875 C 62.386719 18.144531 63.824219 18.269531 65.132812 19.054688 C 66.144531 19.660156 66.871094 20.511719 67.351562 21.636719 "/>
<path style=" stroke:none;fill-rule:nonzero;fill:rgb(16.281128%,23.828125%,60.629272%);fill-opacity:1;" d="M 69.238281 18.632812 C 70.285156 18.632812 71.28125 18.632812 72.347656 18.632812 C 72.347656 20.179688 72.347656 21.710938 72.347656 23.273438 C 73.894531 23.273438 75.367188 23.273438 76.902344 23.273438 C 76.902344 21.730469 76.902344 20.210938 76.902344 18.652344 C 77.96875 18.652344 78.96875 18.652344 80.019531 18.652344 C 80.019531 22.667969 80.019531 26.679688 80.019531 30.730469 C 79.003906 30.730469 78 30.730469 76.925781 30.730469 C 76.925781 29.097656 76.925781 27.476562 76.925781 25.816406 C 75.386719 25.816406 73.914062 25.816406 72.382812 25.816406 C 72.382812 27.441406 72.382812 29.0625 72.382812 30.722656 C 71.308594 30.722656 70.292969 30.722656 69.238281 30.722656 C 69.238281 26.699219 69.238281 22.6875 69.238281 18.632812 "/>
<path style=" stroke:none;fill-rule:nonzero;fill:rgb(16.281128%,23.828125%,60.629272%);fill-opacity:1;" d="M 13.363281 24.140625 C 13.9375 24.046875 14.480469 24.015625 14.980469 23.855469 C 15.550781 23.675781 15.828125 23.210938 15.839844 22.601562 C 15.863281 21.476562 14.59375 20.722656 13.363281 21.132812 C 13.363281 22.09375 13.363281 23.054688 13.363281 24.140625 Z M 20.265625 30.746094 C 18.902344 30.746094 17.644531 30.746094 16.351562 30.746094 C 15.398438 29.261719 14.441406 27.773438 13.484375 26.285156 C 13.449219 26.292969 13.410156 26.300781 13.375 26.308594 C 13.375 27.765625 13.375 29.21875 13.375 30.71875 C 12.285156 30.71875 11.273438 30.71875 10.226562 30.71875 C 10.226562 26.699219 10.226562 22.699219 10.226562 18.695312 C 10.269531 18.671875 10.304688 18.632812 10.34375 18.632812 C 12.191406 18.652344 14.050781 18.554688 15.886719 18.730469 C 18.730469 19.011719 20.089844 22.109375 18.511719 24.496094 C 18.113281 25.097656 17.546875 25.476562 16.5 25.824219 C 17.746094 27.457031 18.976562 29.0625 20.265625 30.746094 "/>
<path style=" stroke:none;fill-rule:nonzero;fill:rgb(16.281128%,23.828125%,60.629272%);fill-opacity:1;" d="M 41.675781 18.644531 C 41.675781 19.535156 41.675781 20.367188 41.675781 21.273438 C 40.421875 21.273438 39.1875 21.273438 37.914062 21.273438 C 37.914062 21.972656 37.914062 22.597656 37.914062 23.300781 C 39.039062 23.300781 40.15625 23.300781 41.308594 23.300781 C 41.308594 24.234375 41.308594 25.085938 41.308594 26 C 40.171875 26 39.066406 26 37.886719 26 C 37.886719 27.601562 37.886719 29.148438 37.886719 30.730469 C 36.808594 30.730469 35.804688 30.730469 34.761719 30.730469 C 34.761719 26.699219 34.761719 22.6875 34.761719 18.644531 C 37.066406 18.644531 39.34375 18.644531 41.675781 18.644531 "/>
<path style=" stroke:none;fill-rule:nonzero;fill:rgb(16.281128%,23.828125%,60.629272%);fill-opacity:1;" d="M 83.847656 21.304688 C 82.964844 21.304688 82.148438 21.304688 81.292969 21.304688 C 81.292969 20.394531 81.292969 19.539062 81.292969 18.648438 C 84.042969 18.648438 86.78125 18.648438 89.570312 18.648438 C 89.570312 19.507812 89.570312 20.375 89.570312 21.300781 C 88.714844 21.300781 87.882812 21.300781 87.011719 21.300781 C 87.011719 24.46875 87.011719 27.578125 87.011719 30.726562 C 85.949219 30.726562 84.929688 30.726562 83.847656 30.726562 C 83.847656 27.59375 83.847656 24.476562 83.847656 21.304688 "/>
<path style=" stroke:none;fill-rule:nonzero;fill:rgb(16.281128%,23.828125%,60.629272%);fill-opacity:1;" d="M 45.992188 28.089844 C 47.300781 28.089844 48.527344 28.089844 49.777344 28.089844 C 49.777344 28.996094 49.777344 29.84375 49.777344 30.726562 C 47.480469 30.726562 45.203125 30.726562 42.886719 30.726562 C 42.886719 26.691406 42.886719 22.683594 42.886719 18.644531 C 43.917969 18.644531 44.921875 18.644531 45.992188 18.644531 C 45.992188 21.761719 45.992188 24.875 45.992188 28.089844 "/>
<path style=" stroke:none;fill-rule:nonzero;fill:rgb(16.281128%,23.828125%,60.629272%);fill-opacity:1;" d="M 141.773438 18.308594 C 143.28125 21.804688 144.789062 25.300781 146.347656 28.910156 C 147.953125 25.304688 149.511719 21.8125 151.070312 18.324219 C 151.113281 18.324219 151.152344 18.324219 151.195312 18.324219 C 151.703125 22.441406 152.214844 26.554688 152.730469 30.722656 C 152.351562 30.722656 152.011719 30.722656 151.597656 30.722656 C 151.304688 27.730469 151.011719 24.730469 150.71875 21.726562 C 150.683594 21.71875 150.648438 21.707031 150.613281 21.699219 C 149.214844 24.835938 147.820312 27.976562 146.367188 31.234375 C 144.949219 27.996094 143.570312 24.855469 142.195312 21.714844 C 142.160156 21.71875 142.128906 21.722656 142.09375 21.722656 C 141.792969 24.71875 141.492188 27.710938 141.1875 30.734375 C 140.808594 30.734375 140.464844 30.734375 140.050781 30.734375 C 140.59375 26.582031 141.128906 22.457031 141.664062 18.335938 C 141.699219 18.328125 141.738281 18.316406 141.773438 18.308594 "/>
<path style=" stroke:none;fill-rule:nonzero;fill:rgb(16.281128%,23.828125%,60.629272%);fill-opacity:1;" d="M 51.003906 30.71875 C 51.003906 26.664062 51.003906 22.664062 51.003906 18.640625 C 52.046875 18.640625 53.050781 18.640625 54.09375 18.640625 C 54.09375 22.671875 54.09375 26.671875 54.09375 30.71875 C 53.074219 30.71875 52.058594 30.71875 51.003906 30.71875 "/>
<path style=" stroke:none;fill-rule:nonzero;fill:rgb(16.281128%,23.828125%,60.629272%);fill-opacity:1;" d="M 155.402344 24.015625 C 156.402344 23.976562 157.363281 24.113281 158.3125 23.8125 C 159.117188 23.558594 159.457031 22.964844 159.503906 22.195312 C 159.550781 21.371094 159.523438 20.535156 158.730469 19.988281 C 158.703125 19.972656 158.679688 19.957031 158.652344 19.945312 C 157.613281 19.453125 156.515625 19.625 155.402344 19.582031 C 155.402344 21.082031 155.402344 22.5 155.402344 24.015625 Z M 155.410156 29.757812 C 156.347656 29.757812 157.257812 29.8125 158.152344 29.742188 C 159.148438 29.667969 159.734375 29.09375 159.976562 28.105469 C 160.136719 27.460938 160.074219 26.824219 159.824219 26.210938 C 159.542969 25.519531 159.011719 25.121094 158.289062 25.0625 C 157.398438 24.988281 156.503906 24.992188 155.609375 24.96875 C 155.542969 24.96875 155.476562 25.011719 155.410156 25.03125 C 155.410156 26.613281 155.410156 28.175781 155.410156 29.757812 Z M 154.296875 30.828125 C 154.296875 26.691406 154.296875 22.691406 154.296875 18.664062 C 154.375 18.648438 154.441406 18.617188 154.511719 18.617188 C 155.667969 18.644531 156.828125 18.632812 157.984375 18.707031 C 160.339844 18.859375 161.308594 21.609375 160.21875 23.304688 C 159.9375 23.734375 159.441406 24.023438 159.046875 24.378906 C 159.015625 24.34375 159.03125 24.378906 159.054688 24.382812 C 160.476562 24.675781 161.355469 25.84375 161.242188 27.535156 C 161.128906 29.195312 160.207031 30.390625 158.613281 30.597656 C 157.210938 30.785156 155.777344 30.757812 154.296875 30.828125 "/>
<path style=" stroke:none;fill-rule:nonzero;fill:rgb(16.281128%,23.828125%,60.629272%);fill-opacity:1;" d="M 128.226562 18.636719 C 125.839844 22.335938 123.484375 25.976562 121.082031 29.699219 C 123.242188 29.699219 125.324219 29.699219 127.457031 29.699219 C 127.457031 30.074219 127.457031 30.382812 127.457031 30.730469 C 124.707031 30.730469 121.972656 30.730469 119.148438 30.730469 C 121.550781 27.023438 123.914062 23.367188 126.347656 19.613281 C 124.226562 19.613281 122.226562 19.613281 120.195312 19.613281 C 120.195312 19.257812 120.195312 18.960938 120.195312 18.636719 C 122.867188 18.636719 125.5 18.636719 128.226562 18.636719 "/>
<path style=" stroke:none;fill-rule:nonzero;fill:rgb(16.281128%,23.828125%,60.629272%);fill-opacity:1;" d="M 168.691406 25.652344 C 170.125 25.652344 171.464844 25.652344 172.871094 25.652344 C 172.191406 23.921875 171.539062 22.25 170.828125 20.441406 C 170.089844 22.25 169.402344 23.925781 168.691406 25.652344 Z M 176 30.746094 C 175.554688 30.746094 175.207031 30.746094 174.816406 30.746094 C 174.296875 29.390625 173.773438 28.042969 173.25 26.675781 C 171.597656 26.675781 169.972656 26.675781 168.292969 26.675781 C 167.769531 28.015625 167.242188 29.367188 166.703125 30.734375 C 166.351562 30.734375 166.007812 30.734375 165.578125 30.734375 C 167.351562 26.550781 169.101562 22.414062 170.910156 18.144531 C 172.632812 22.40625 174.304688 26.542969 176 30.746094 "/>
<path style=" stroke:none;fill-rule:nonzero;fill:rgb(16.281128%,23.828125%,60.629272%);fill-opacity:1;" d="M 135.953125 25.660156 C 135.273438 23.929688 134.621094 22.253906 133.964844 20.582031 C 133.925781 20.582031 133.886719 20.585938 133.847656 20.589844 C 133.164062 22.261719 132.480469 23.9375 131.773438 25.660156 C 133.191406 25.660156 134.53125 25.660156 135.953125 25.660156 Z M 136.328125 26.671875 C 134.671875 26.671875 133.0625 26.671875 131.382812 26.671875 C 130.855469 28.007812 130.320312 29.367188 129.78125 30.738281 C 129.421875 30.738281 129.089844 30.738281 128.660156 30.738281 C 130.429688 26.554688 132.179688 22.421875 133.988281 18.144531 C 135.710938 22.402344 137.382812 26.535156 139.074219 30.722656 C 138.671875 30.722656 138.316406 30.722656 137.890625 30.722656 C 137.378906 29.398438 136.855469 28.035156 136.328125 26.671875 "/>
<g clip-path="url(#clip1)" clip-rule="nonzero">
<path style=" stroke:none;fill-rule:nonzero;fill:rgb(97.013855%,59.410095%,6.115723%);fill-opacity:1;" d="M 92.019531 36.242188 C 92.984375 36.058594 93.949219 35.882812 94.910156 35.6875 C 97.066406 35.246094 99.082031 34.386719 101.109375 33.570312 C 103.144531 32.753906 105.210938 32.03125 107.402344 31.796875 C 110.074219 31.511719 112.710938 31.667969 115.246094 32.65625 C 115.40625 32.714844 115.558594 32.792969 115.691406 32.9375 C 114.976562 32.835938 114.265625 32.726562 113.550781 32.628906 C 110.695312 32.25 107.894531 32.535156 105.15625 33.402344 C 103.757812 33.847656 102.382812 34.359375 101.011719 34.875 C 98.957031 35.648438 96.816406 35.988281 94.644531 36.164062 C 93.769531 36.234375 92.890625 36.277344 92.011719 36.332031 C 92.015625 36.300781 92.019531 36.273438 92.019531 36.242188 "/>
</g>
<path style=" stroke:none;fill-rule:nonzero;fill:rgb(16.281128%,23.828125%,60.629272%);fill-opacity:1;" d="M 163.78125 30.730469 C 163.425781 30.730469 163.097656 30.730469 162.738281 30.730469 C 162.738281 26.695312 162.738281 22.695312 162.738281 18.65625 C 163.074219 18.65625 163.402344 18.65625 163.78125 18.65625 C 163.78125 22.65625 163.78125 26.664062 163.78125 30.730469 "/>
</g>
</svg>

<svg xmlns="http://www.w3.org/2000/svg" width="176pt" height="48.44" viewBox="0 0 176 36.33"><defs><clipPath id="a"><path d="M92 31h24v5.328H92Zm0 0"/></clipPath></defs><path d="M0 18.613c1.555.004 3.11-.011 4.664.012.54.008 1.086.066 1.617.168 1.696.336 2.68 1.371 2.899 3.09.18 1.426.062 2.805-1.067 3.87-.789.743-1.797.946-2.843.974-.676.02-1.348.003-2.094.003v4.047H0v-4.054c1.195.023 2.371-.125 3.457-.649 1.035-.496 1.898-1.199 2.262-2.36.05-.12.117-.241.148-.366.254-1.04.051-2.121-1.457-2.153-.41-.008-.82-.011-1.23-.02-.032.153-.09.31-.09.462-.012.66 0 1.32-.008 1.976 0 .168-.039.336-.062.555H0z" style="stroke:none;fill-rule:nonzero;fill:#2a3d9b;fill-opacity:1"/><path d="M3.02 24.168H0v2.555c1.195.023 2.371-.125 3.457-.649 1.035-.496 1.898-1.199 2.262-2.36-.735.634-1.61.45-2.54.458z" style="stroke:none;fill-rule:nonzero;fill:#f79710;fill-opacity:1"/><path d="M118.535 14.176c-.707 1.508-1.402 3.02-2.12 4.523-.731 1.535-1.661 2.961-2.9 4.121-1.206 1.13-2.542 2.117-3.82 3.168l.035.145c.211 0 .43.039.633-.004 1.617-.356 3.125-1.016 4.602-1.746.281-.145.57-.278.96-.465-.413.445-.734.828-1.09 1.172-1.55 1.508-3.495 2.219-5.554 2.687-.43.098-.855.2-1.289.29-1.105.238-2.086.699-3.012 1.374-1.945 1.418-3.878 2.88-6.109 3.829-1.652.703-3.36 1.27-5.043 1.894q-.04-.084-.074-.168c.21-.117.426-.23.637-.351 2.074-1.184 4.043-2.504 5.703-4.247.14-.148.3-.293.394-.468.098-.176.125-.387.211-.664-.316-.055-.543-.145-.758-.125-1.468.113-2.761-.325-3.89-1.239-.508-.41-.989-.386-1.485-.047-.421.29-.816.614-1.25.946-.101-.719.157-1.305.625-1.805.11-1.164.73-1.808 1.954-1.945.742-.078 1.492-.063 2.242-.082.761-.016 1.523-.012 2.289-.028 1.43-.027 2.5-.836 3.469-1.73 3.914-3.613 7.64-7.402 10.68-11.797 2.308-3.34 4.136-6.93 5.421-10.789.05-.152.11-.305.164-.453.012-.024.043-.04.2-.176-.032.7-.012 1.285-.09 1.856-.235 1.75-.844 3.39-1.516 5.003-1.61 3.856-3.5 7.567-5.836 11.04-.414.62-.895 1.199-1.328 1.812-.176.25-.305.54-.453.809l.117.152c.266-.078.547-.121.793-.238 1.469-.688 2.625-1.754 3.629-3.008.812-1.024 1.644-2.031 2.472-3.043.079-.094.168-.184.25-.277q.069.04.137.074M23.43 24.555c0 1.957 1.515 3.547 3.39 3.554 1.91.008 3.442-1.593 3.438-3.601 0-1.727-1.582-3.211-3.418-3.215-1.848-.008-3.41 1.488-3.41 3.262m3.36 6.593c-3.849-.011-6.575-2.687-6.669-6.535-.07-2.722 1.742-5.129 4.535-6.031 3.196-1.027 6.657.254 8.215 3.164 1.063 1.98.91 4.04-.105 6.004-1.157 2.246-3.27 3.41-5.977 3.398M67.352 21.637c-.989.414-1.946.82-2.926 1.234-.074-.113-.137-.207-.192-.305-.507-.96-1.242-1.57-2.386-1.601-1.184-.031-2.051.492-2.61 1.488-.89 1.586-.89 3.207.086 4.762.832 1.324 2.535 1.742 3.918 1.015.672-.359 1.028-.93 1.082-1.75H61.81v-2.449h6.16c.242 3.012-1.13 6.371-4.813 7-2.172.371-4.195.012-5.883-1.508-1.101-.992-1.71-2.273-1.878-3.738-.27-2.308.222-4.387 2.007-6.008.993-.898 2.2-1.347 3.516-1.48 1.469-.152 2.906-.027 4.215.758 1.012.605 1.738 1.457 2.219 2.582M69.238 18.633h3.11v4.64h4.554v-4.62h3.118V30.73h-3.094v-4.914h-4.543v4.907h-3.145zM13.363 24.14c.575-.093 1.117-.124 1.617-.285.57-.18.848-.644.86-1.253.023-1.125-1.246-1.88-2.477-1.47zm6.903 6.606h-3.914q-1.431-2.228-2.868-4.46l-.109.023v4.41h-3.148V18.695c.043-.023.078-.062.117-.062 1.847.02 3.707-.078 5.543.097 2.843.282 4.203 3.38 2.625 5.766-.399.602-.965.98-2.012 1.328 1.246 1.633 2.477 3.238 3.766 4.922M41.676 18.645v2.628h-3.762v2.028h3.395V26h-3.422v4.73h-3.125V18.645zM83.848 21.305h-2.555v-2.657h8.277v2.653h-2.558v9.426h-3.164zM45.992 28.09h3.785v2.637h-6.89V18.645h3.105zM141.773 18.309c1.508 3.496 3.016 6.992 4.575 10.601 1.605-3.605 3.164-7.097 4.722-10.586h.125c.508 4.117 1.02 8.23 1.535 12.399h-1.132l-.88-8.996c-.034-.008-.07-.02-.105-.028-1.398 3.137-2.793 6.278-4.246 9.535-1.418-3.238-2.797-6.379-4.172-9.52q-.05.008-.101.009l-.906 9.011h-1.137c.543-4.152 1.078-8.277 1.613-12.398.035-.008.074-.02.11-.027M51.004 30.719V18.64h3.09v12.078zM155.402 24.016c1-.04 1.961.097 2.91-.203.805-.254 1.145-.848 1.192-1.618.047-.824.02-1.66-.774-2.207-.027-.015-.05-.031-.078-.043-1.039-.492-2.136-.32-3.25-.363zm.008 5.742c.938 0 1.848.055 2.742-.016.996-.074 1.582-.648 1.825-1.637a3 3 0 0 0-.153-1.894c-.281-.691-.812-1.09-1.535-1.148-.89-.075-1.785-.07-2.68-.094-.066 0-.132.043-.199.062zm-1.113 1.07V18.664c.078-.016.144-.047.215-.047 1.156.028 2.316.016 3.472.09 2.356.152 3.325 2.902 2.235 4.598-.281.43-.778.718-1.172 1.074-.031-.035-.016 0 .008.004 1.422.293 2.3 1.46 2.187 3.152-.113 1.66-1.035 2.856-2.629 3.063-1.402.187-2.836.16-4.316.23M128.227 18.637c-2.387 3.699-4.743 7.34-7.145 11.062h6.375v1.031h-8.309c2.403-3.707 4.766-7.363 7.2-11.117h-6.153v-.976zM168.691 25.652h4.18c-.68-1.73-1.332-3.402-2.043-5.21-.738 1.808-1.426 3.484-2.137 5.21M176 30.746h-1.184c-.52-1.355-1.043-2.703-1.566-4.07h-4.957c-.523 1.34-1.05 2.691-1.59 4.058h-1.125c1.774-4.183 3.524-8.32 5.332-12.59 1.723 4.262 3.395 8.399 5.09 12.602M135.953 25.66c-.68-1.73-1.332-3.406-1.988-5.078q-.06.001-.117.008c-.684 1.672-1.368 3.348-2.075 5.07zm.375 1.012h-4.945l-1.602 4.066h-1.12c1.769-4.183 3.519-8.316 5.327-12.593 1.723 4.257 3.395 8.39 5.086 12.578h-1.183c-.512-1.325-1.036-2.688-1.563-4.051" style="stroke:none;fill-rule:nonzero;fill:#2a3d9b;fill-opacity:1"/><g clip-path="url(#a)"><path d="M92.02 36.242c.964-.183 1.93-.36 2.89-.554 2.156-.442 4.172-1.301 6.2-2.118 2.035-.816 4.1-1.539 6.292-1.773 2.672-.285 5.309-.129 7.844.86.16.058.313.136.445.28-.714-.101-1.425-.21-2.14-.308-2.856-.379-5.656-.094-8.395.773-1.398.446-2.773.957-4.144 1.473-2.055.773-4.196 1.113-6.367 1.29-.875.07-1.754.112-2.633.167q.007-.045.008-.09" style="stroke:none;fill-rule:nonzero;fill:#f79710;fill-opacity:1"/></g><path d="M163.781 30.73h-1.043V18.656h1.043z" style="stroke:none;fill-rule:nonzero;fill:#2a3d9b;fill-opacity:1"/></svg>
